assets/img/icons/icon_3.svg

<svg width="66" height="66" viewBox="0 0 66 66" fill="none" xmlns="http://www.w3.org/2000/svg">
<path d="M53.031 57.9778H12.969C11.6562 57.9778 10.3972 57.4563 9.46886 56.528C8.54056 55.5997 8.01904 54.3406 8.01904 53.0278V19.8001C8.01904 18.4873 8.54056 17.2282 9.46886 16.2999C10.3972 15.3716 11.6562 14.8501 12.969 14.8501H33C33.4377 14.8501 33.8573 15.0239 34.1668 15.3334C34.4762 15.6428 34.65 16.0625 34.65 16.5001C34.65 16.9377 34.4762 17.3574 34.1668 17.6668C33.8573 17.9763 33.4377 18.1501 33 18.1501H12.969C12.5314 18.1501 12.1118 18.3239 11.8023 18.6334C11.4929 18.9428 11.319 19.3625 11.319 19.8001V53.0311C11.319 53.4687 11.4929 53.8884 11.8023 54.1978C12.1118 54.5073 12.5314 54.6811 12.969 54.6811H53.031C53.4687 54.6811 53.8883 54.5073 54.1978 54.1978C54.5072 53.8884 54.681 53.4687 54.681 53.0311V49.5001C54.681 49.0625 54.8549 48.6428 55.1643 48.3334C55.4738 48.0239 55.8934 47.8501 56.331 47.8501C56.7687 47.8501 57.1883 48.0239 57.4978 48.3334C57.8072 48.6428 57.981 49.0625 57.981 49.5001V53.0311C57.9802 54.3434 57.4583 55.6016 56.5301 56.5291C55.6018 57.4567 54.3433 57.9778 53.031 57.9778Z" fill="white"/>
<path d="M48.3351 51.1499C48.111 51.15 47.8891 51.1044 47.6832 51.0159C47.4772 50.9274 47.2915 50.7978 47.1372 50.6351L39.3129 42.3851C39.0225 42.0785 38.8607 41.6722 38.8608 41.2499V9.67222C38.8608 9.23461 39.0347 8.81493 39.3441 8.50549C39.6535 8.19606 40.0732 8.02222 40.5108 8.02222H56.1562C56.5938 8.02222 57.0134 8.19606 57.3229 8.50549C57.6323 8.81493 57.8062 9.23461 57.8062 9.67222V41.2499C57.8063 41.6722 57.6445 42.0785 57.3541 42.3851L49.5297 50.6351C49.3759 50.7974 49.1907 50.9267 48.9853 51.0152C48.78 51.1037 48.5588 51.1495 48.3351 51.1499ZM42.1608 40.5899L48.3351 47.0975L54.5062 40.5899V11.3222H42.1608V40.5899Z" fill="white"/>
<path d="M56.1562 18.1501H40.5108C40.0732 18.1501 39.6535 17.9763 39.3441 17.6668C39.0347 17.3574 38.8608 16.9377 38.8608 16.5001C38.8608 16.0625 39.0347 15.6428 39.3441 15.3334C39.6535 15.0239 40.0732 14.8501 40.5108 14.8501H56.1562C56.5938 14.8501 57.0134 15.0239 57.3229 15.3334C57.6323 15.6428 57.8062 16.0625 57.8062 16.5001C57.8062 16.9377 57.6323 17.3574 57.3229 17.6668C57.0134 17.9763 56.5938 18.1501 56.1562 18.1501Z" fill="white"/>
<path d="M33.0001 30.3601H19.3612C18.9236 30.3601 18.5039 30.1862 18.1945 29.8768C17.885 29.5674 17.7112 29.1477 17.7112 28.7101C17.7112 28.2725 17.885 27.8528 18.1945 27.5433C18.5039 27.2339 18.9236 27.0601 19.3612 27.0601H33.0001C33.4377 27.0601 33.8574 27.2339 34.1668 27.5433C34.4762 27.8528 34.6501 28.2725 34.6501 28.7101C34.6501 29.1477 34.4762 29.5674 34.1668 29.8768C33.8574 30.1862 33.4377 30.3601 33.0001 30.3601Z" fill="white"/>
<path d="M33.0001 38.6101H19.3612C18.9236 38.6101 18.5039 38.4362 18.1945 38.1268C17.885 37.8174 17.7112 37.3977 17.7112 36.9601C17.7112 36.5225 17.885 36.1028 18.1945 35.7933C18.5039 35.4839 18.9236 35.3101 19.3612 35.3101H33.0001C33.4377 35.3101 33.8574 35.4839 34.1668 35.7933C34.4762 36.1028 34.6501 36.5225 34.6501 36.9601C34.6501 37.3977 34.4762 37.8174 34.1668 38.1268C33.8574 38.4362 33.4377 38.6101 33.0001 38.6101Z" fill="white"/>
<path d="M33.0001 46.8601H19.3612C18.9236 46.8601 18.5039 46.6862 18.1945 46.3768C17.885 46.0673 17.7112 45.6477 17.7112 45.2101C17.7112 44.7724 17.885 44.3528 18.1945 44.0433C18.5039 43.7339 18.9236 43.5601 19.3612 43.5601H33.0001C33.4377 43.5601 33.8574 43.7339 34.1668 44.0433C34.4762 44.3528 34.6501 44.7724 34.6501 45.2101C34.6501 45.6477 34.4762 46.0673 34.1668 46.3768C33.8574 46.6862 33.4377 46.8601 33.0001 46.8601Z" fill="white"/>
</svg>

<svg width="66" height="66" fill="none" xmlns="http://www.w3.org/2000/svg"><path d="M53.031 57.978H12.969a4.95 4.95 0 01-4.95-4.95V19.8a4.95 4.95 0 014.95-4.95H33a1.65 1.65 0 110 3.3H12.969a1.65 1.65 0 00-1.65 1.65v33.231a1.65 1.65 0 001.65 1.65h40.062a1.65 1.65 0 001.65-1.65v-3.53a1.65 1.65 0 013.3 0v3.53a4.95 4.95 0 01-4.95 4.947z" fill="#fff"/><path d="M48.335 51.15a1.65 1.65 0 01-1.198-.515l-7.824-8.25a1.65 1.65 0 01-.452-1.135V9.672a1.65 1.65 0 011.65-1.65h15.645a1.65 1.65 0 011.65 1.65V41.25c0 .422-.161.828-.452 1.135l-7.824 8.25a1.649 1.649 0 01-1.195.515zm-6.174-10.56l6.174 6.507 6.171-6.507V11.322H42.161V40.59z" fill="#fff"/><path d="M56.156 18.15H40.511a1.65 1.65 0 110-3.3h15.645a1.65 1.65 0 110 3.3zM33 30.36H19.361a1.65 1.65 0 010-3.3h13.64a1.65 1.65 0 110 3.3zm0 8.25H19.361a1.65 1.65 0 010-3.3h13.64a1.65 1.65 0 110 3.3zm0 8.25H19.361a1.65 1.65 0 010-3.3h13.64a1.65 1.65 0 110 3.3z" fill="#fff"/></svg>
